X:1
T:He that drinks is immortal
T:Henry Purcell (1659-1695)
%%score [ 1 2 3 ]
L:1/8
Q:1/4=80
M:3/4
K:C
V:1 treble nm="I"
V:2 treble nm="II"
V:3 treble nm="III"
V:1
|: E F | G3 A B2 | c2 G2 A B | c3 B c2 | d6- | d2 G2 c2 | (BA) (GA) (GF) | E4 :| %8
w: He that|drinks is im-|mor- tal, he that|drinks is im-|mor-|* tal and|can _ ne'er _ de- *|cay,|
V:2
|: C2 | E2 (EF) G2 | C4 G2 | A2 F3 E | D4 _B2 | (AG) (AGFE | DC B,3) C | C4 :| %8
w: For|wine still _ sup-|plies, for|wine still sup-|lies what|age _ wears _ _ _|_ _ _ a-|way.|
V:3
|: z2 | z4 G2 | E3 D C2 | A,4 A2 | F2 E2 D2 | B,4 C2 | G3 F G2 | C4 :| %8
w: |How|can he be|dust, how|can he be|dust that|moist- ens his|clay?|

